www/assets/icons/not_accessible.svg

<svg width="24" height="24" viewBox="0 0 24 24" xmlns="http://www.w3.org/2000/svg" fill='currentColor'><path d="M14.71 10.7448L11.29 7.32482C11.61 6.98482 12.03 6.75482 12.52 6.71482C13 6.67482 13.36 6.78482 13.72 6.97482C13.91 7.07482 14.11 7.19482 14.35 7.43482L15.64 8.86482C16.62 9.94482 18.17 10.7148 19.71 10.6948V12.6948C17.96 12.6848 16 11.8148 14.71 10.7448ZM12.71 5.69482C13.81 5.69482 14.71 4.79482 14.71 3.69482C14.71 2.59482 13.81 1.69482 12.71 1.69482C11.61 1.69482 10.71 2.59482 10.71 3.69482C10.71 4.79482 11.61 5.69482 12.71 5.69482ZM3.51998 2.50482L2.09998 3.91482L10.71 12.5248V14.6948C10.71 15.7948 11.61 16.6948 12.71 16.6948H14.88L20.49 22.3048L21.9 20.8948L3.51998 2.50482ZM10.71 19.6948C9.04998 19.6948 7.70998 18.3548 7.70998 16.6948C7.70998 15.3848 8.54998 14.2848 9.70998 13.8648V11.7948C7.42998 12.2548 5.70998 14.2748 5.70998 16.6948C5.70998 19.4548 7.94998 21.6948 10.71 21.6948C13.13 21.6948 15.15 19.9748 15.61 17.6948H13.54C13.13 18.8548 12.02 19.6948 10.71 19.6948Z"/></svg>

<svg xmlns="http://www.w3.org/2000/svg" width="24" height="24" viewBox="0 0 24 24" fill='currentColor'><path d="m14.71 10.745-3.42-3.42c.32-.34.74-.57 1.23-.61.48-.04.84.07 1.2.26.19.1.39.22.63.46l1.29 1.43c.98 1.08 2.53 1.85 4.07 1.83v2c-1.75-.01-3.71-.88-5-1.95m-2-5.05c1.1 0 2-.9 2-2s-.9-2-2-2-2 .9-2 2 .9 2 2 2m-9.19-3.19L2.1 3.915l8.61 8.61v2.17c0 1.1.9 2 2 2h2.17l5.61 5.61 1.41-1.41zm7.19 17.19c-1.66 0-3-1.34-3-3 0-1.31.84-2.41 2-2.83v-2.07a5 5 0 1 0 5.9 5.9h-2.07c-.41 1.16-1.52 2-2.83 2"/></svg>
